X: 1
T: Waltz Medley #4
T: 
P: Connel Ferry
C: Bert Murray
C: arr. T. Traub 6-27-03
R: Waltz
M: 3/4
K: Eb
L: 1/4
"Eb"G > F E|"Eb"E > G B|"Ab"A c e|"Eb"B3|"Eb" G > A B|"Cm"B G B|"Ab" e > B "F"G|"Bb" F3|
"Eb"G > F E|"Eb"E > G B|"Ab"A c e|"Eb"B3|"Ab" e > c e|"Eb" B G "Cm"E|"Bb" B, G F|"Eb" E3|
"Eb"G > A B|"Eb"B > G B|"Ab"e d c|"Eb"B3|"Ab"e > d c|"Eb"B > G B|"Ab"e B "F"G|"Bb" F3|
"Eb"G > F E|"Eb"E > G B|"Ab"e c e|"Eb"B3|"Ab"e > c e|"Eb"B G "Cm"E|"Bb" B, G F|"Eb" E3|]
